src/actions/24/resource-calendar-child.svg

<svg xmlns="http://www.w3.org/2000/svg" viewBox="0 0 24 24">
    <path d="M7 4S6 4 6 5H4v15h7v-1H5V8h14v3h1V5h-2c0-1-1-1-1-1h-3s-1 0-1 1h-2c0-1-1-1-1-1H7zm0 1h3v1H7V5zm7 0h3v1h-3V5zM7 9v2h2V9H7zm4 0v2h2V9h-2zm4 0v2h2V9h-2zm-8 3v2h2v-2H7zm5 0v8h8v-8h-1v1h-1v-1h-4v1h-1v-1h-1zm1 2h6v5h-6v-5zm1 1v1h1v-1h-1zm3 0v1h1v-1h-1zm0 2v1h1v-1h-1z" style="fill:currentColor;fill-opacity:1;stroke:none;color:#050505;opacity:.7"/>
</svg>

<svg xmlns="http://www.w3.org/2000/svg" viewBox="0 0 24 24">
  <defs id="defs3051">
    <style type="text/css" id="current-color-scheme">
      .ColorScheme-Text {
        color:#363636;
      }
      </style>
  </defs>
 <path style="fill:currentColor;fill-opacity:1;stroke:none" 
     d="M 7 4 C 7 4 6 3.99997 6 5 L 4 5 L 4 8 L 4 19 L 4 20 L 11 20 L 11 19 L 5 19 L 5 8 L 19 8 L 19 11 L 20 11 L 20 8 L 20 5 L 18 5 C 18 3.99997 17 4 17 4 L 14 4 C 14 4 13 3.99997 13 5 L 11 5 C 11 3.99997 10 4 10 4 L 7 4 z M 7 5 L 10 5 L 10 6 L 7 6 L 7 5 z M 14 5 L 17 5 L 17 6 L 14 6 L 14 5 z M 7 9 L 7 11 L 9 11 L 9 9 L 7 9 z M 11 9 L 11 11 L 13 11 L 13 9 L 11 9 z M 15 9 L 15 11 L 17 11 L 17 9 L 15 9 z M 7 12 L 7 14 L 9 14 L 9 12 L 7 12 z M 12 12 L 12 20 L 20 20 L 20 12 L 19 12 L 19 13 L 18 13 L 18 12 L 14 12 L 14 13 L 13 13 L 13 12 L 12 12 z M 13 14 L 19 14 L 19 19 L 13 19 L 13 14 z M 14 15 L 14 16 L 15 16 L 15 15 L 14 15 z M 17 15 L 17 16 L 18 16 L 18 15 L 17 15 z M 17 17 L 17 18 L 18 18 L 18 17 L 17 17 z "
     class="ColorScheme-Text"
     />
</svg>
